X:1
T:Title
%%score { ( 1 3 5 ) | ( 2 4 ) }
L:1/8
M:3/4
K:G
V:1 treble nm="Grand Piano"
V:3 treble 
V:5 treble 
V:2 bass 
V:4 bass 
V:1
 z2 z2[Q:1/4=100] [DB]>[^C_B] | [DB]3 [B,G] [DA][^DG] | [EG]2 [CE]2 [B,D]>[_B,^C] | %3
 [B,D]3 [B,G] [DB][DG] |[M:2/4] [CA]4 |[M:1/4] [DB]>[^C_B] |[M:3/4] [DB]3 [B,G] [DA][^DG] | %7
 [EG]2 [CE]2 [DG]>[EA] | B3 G A>A |[M:2/4] [B,G]4 |[M:4/4] z2 d6 | z2 G6 | z2 A6 | z2 =B6 | z2 d6 | %15
 z2 e6 | z2 B6 |[M:3/4] A>A [B,G]4- | [B,G]2 z2 z2 |] %19
V:2
 z2 z2 [G,,G,]>[G,,G,] | [G,,G,]3 [G,,G,] [B,,G,][B,,G,] | [C,G,]4 [G,,G,]>[G,,G,] | %3
 [G,,G,]3 [G,,G,] [G,,G,][B,,G,] |[M:2/4] [D,F,]4 |[M:1/4] [G,,G,]>[G,,G,] | %6
[M:3/4] [G,,G,]3 [G,,G,] [B,,G,][B,,G,] | [C,G,]4 [B,,G,]>[C,G,] | %8
 [D,G,D]3 [D,G,B,] [D,F,C]>[D,F,C] |[M:2/4] [G,,D,G,]4 |[M:4/4][K:treble] G>A B4- B>[G,G] | %11
 D>C[K:bass] B,2 [G,,D,]>[G,,E,] [G,,D,]2 | A,>B, C2 [D,F,]>[D,F,] [D,F,]>[D,F,E] | z2 D6 | %14
 G>A B4- B>B | z2 G6[K:bass] | z2 D6[K:bass] |[M:3/4] [D,F,C]>[D,F,C] [G,,D,G,]4- | %18
 [G,,D,G,]2 z2 z2 |] %19
V:3
 x6 | x6 | x6 | x6 |[M:2/4] x4 |[M:1/4] x2 |[M:3/4] x6 | x6 | x6 |[M:2/4] x4 | %10
[M:4/4] B>c z2 G,>G, G,>B | B>A z2 B,>C B,2 | F>G z z/ C/ C>C C>c | B>_B z2 G,>G, G,2 | %14
 B>c z2 G,>G, z z/ d/ | c>B z z/ C/ C>C C2 | d>c z2 G,>G, G,>G |[M:3/4] x6 | x6 |] %19
V:4
 x6 | x6 | x6 | x6 |[M:2/4] x4 |[M:1/4] x2 |[M:3/4] x6 | x6 | x6 |[M:2/4] x4 | %10
[M:4/4][K:treble] x8 | x2[K:bass] x6 | x8 | D>^C z2 G,,>G,, G,,2 | x8 | %15
 A>G z z/[K:bass] C,/ E,>G, z2 | F>E z2[K:bass] D,>D, D,>[D,G,B,] |[M:3/4] x6 | x6 |] %19
V:5
 x6 | x6 | x6 | x6 |[M:2/4] x4 |[M:1/4] x2 |[M:3/4] x6 | x6 | x6 |[M:2/4] x4 |[M:4/4] x8 | x8 | %12
 x8 | x8 | z4 z2 G,2 | x8 | x8 |[M:3/4] x6 | x6 |] %19

